X:50
T:Saw Ye Johnnie Comin'
C:arr. Carlo Minasi
M:C
L:1/8
B:Chappell's One Hundred Scotch Melodies
B:Arranged for the Concertina by Carlo Minasi
Q:"Moderato  "1/4=120
Z:Peter Dunk 2012
K:Em
!p!G>G (A<B) (d>B) ([dB]<g)|G>GAB (d<B-) B2|\
G>G (A<B) (d>B) ([dB]<g)|
G>G AB (d<B-) B2|(g>fed) (e>d) B2|\
(g>fe[^dA]) [eG]<B- B2|
(g>fed) (e>[fc]) [g2B2]|G>G (A<B) (d>B) ([dB]<g)|\
G2 (A<B) (d<B-) B2||

